svg/color/unb.svg

<?xml version="1.0" standalone="yes"?>
<svg xmlns="http://www.w3.org/2000/svg" width="200" height="200">
<path style="fill:#010101; stroke:none;" d="M0 0L0 86L1 86C2.77796 45.2195 45.2195 2.77802 86 1L59 0L0 0z"/>
<path style="fill:#d5d5d6; stroke:none;" d="M86 0.428238C71.7859 2.46457 58.1106 7.34474 46 15.054C34.7845 22.1935 25.3487 31.1085 17.7215 42C-31.5272 112.325 28.2909 211.851 114 199.572C128.214 197.535 141.889 192.655 154 184.946C165.216 177.806 174.651 168.892 182.279 158C231.52 87.6848 171.696 -11.8486 86 0.428238z"/>
<path style="fill:#010101; stroke:none;" d="M114 0L114 1C154.781 2.77802 197.222 45.2195 199 86L200 86L200 0L114 0z"/>
<path style="fill:#4dbebe; stroke:none;" d="M188 52L189 53L188 52M50 62L50 63L84 62L149 62L121 61L74 61L50 62z"/>
<path style="fill:#06a5c8; stroke:none;" d="M51 62L51 106C51 111.183 49.8294 120.024 53.1752 124.436C55.4081 127.381 60.7236 126.978 64 127.424C75.4989 128.989 89.644 127.435 100 122L66.4282 91L51 62z"/>
<path style="fill:#024971; stroke:none;" d="M52 62C59.1281 81.0898 67.9584 97.8569 84 111.076C88.3643 114.673 94.2951 120.088 100 121.246C106.304 122.526 114.361 115.63 119 112.101C134.825 100.063 146.325 81.8475 149 62L52 62z"/>
<path style="fill:#4dbebe; stroke:none;" d="M148.333 65.6667L148.667 66.3333L148.333 65.6667M147 69L148 70L147 69M150 69L150 115L151 115C151 101.997 155.01 80.9389 150 69M146.333 72.6667L146.667 73.3333L146.333 72.6667z"/>
<path style="fill:#06a5c8; stroke:none;" d="M149 74C146.979 88.9942 138.336 103.259 127.91 113.961C123.112 118.886 115.662 122.246 112 128C120.343 129.418 135.309 136.805 143.61 133.357C147.882 131.583 148.693 123.918 149.385 120C151.401 108.592 153.474 84.6628 149 74z"/>
<path style="fill:#4dbebe; stroke:none;" d="M145 76L146 77L145 76M148.333 76.6667L148.667 77.3333L148.333 76.6667M144 78L145 79L144 78M147.333 80.6667L147.667 81.3333L147.333 80.6667M142 83L143 84L142 83M146.333 83.6667L146.667 84.3333L146.333 83.6667M141 85L142 86L141 85M145.333 86.6667L145.667 87.3333L145.333 86.6667M144 89L145 90L144 89M138 90L139 91L138 90M143 91L144 92L143 91M137 92L138 93L137 92M136 93L137 94L136 93M142 93L143 94L142 93M135 95L136 96L135 95M141 95L142 96L141 95M134 96L135 97L134 96M140 97L141 98L140 97M139 99L140 100L139 99M138 100L139 101L138 100M130 101L131 102L130 101M129 102L130 103L129 102M137 102L138 103L137 102M128 103L129 104L128 103M136 103L137 104L136 103M127 104L128 105L127 104M126 105L127 106L126 105M135 105L136 106L135 105M125 106L126 107L125 106M134 106L135 107L134 106M124 107L125 108L124 107M133 107L134 108L133 107M123 108L124 109L123 108M122 109L123 110L122 109z"/>
<path style="fill:#06a5c8; stroke:none;" d="M119 111L120 112L119 111z"/>
<path style="fill:#4dbebe; stroke:none;" d="M130 111L131 112L130 111M118 112L119 113L118 112M129 112L130 113L129 112M128 113L129 114L128 113z"/>
<path style="fill:#010101; stroke:none;" d="M0 114L0 200L86 200L86 199C53.951 197.603 23.5716 171.526 9.80864 144C5.01681 134.416 4.26481 123.497 0 114z"/>
<path style="fill:#4dbebe; stroke:none;" d="M115 114L116 115L115 114M127 114L128 115L127 114z"/>
<path style="fill:#010101; stroke:none;" d="M199 114C197.222 154.781 154.781 197.222 114 199L114 200L200 200L200 141L199 114z"/>
<path style="fill:#4dbebe; stroke:none;" d="M114 115L115 116L114 115M126 115L127 116L126 115M112 116L113 117L112 116M125 116L126 117L125 116M124 117L125 118L124 117M51 118L51 122L52 122L51 118M109 118L110 119L109 118M107 119L108 120L107 119M121 119L122 120L121 119M149 119L149 122L150 122L149 119M105 120L106 121L105 120M120 120L121 121L120 120M103 121L104 122L103 121M119 121L120 122L119 121M99.6667 122.333L100.333 122.667L99.6667 122.333M97.6667 123.333L98.3333 123.667L97.6667 123.333M116 123L117 124L116 123M52 124L53 125L52 124M94.6667 124.333L95.3333 124.667L94.6667 124.333M115 124L116 125L115 124M148.333 124.667L148.667 125.333L148.333 124.667M90.6667 125.333L91.3333 125.667L90.6667 125.333M113 125L114 126L113 125M54 126L54 127L57 127L54 126M86.6667 126.333L87.3333 126.667L86.6667 126.333M59 127L59 128L65 128L59 127M77 127L77 128L83 128L77 127M58 136C70.9659 174.452 130.402 164.858 145 134C134.243 133.151 121.354 126.978 111 127.691C105.6 128.063 100.186 132.202 95 133.795C83.5526 137.311 69.7753 138.803 58 136M147 128L148 129L147 128M146 130L147 131L146 130M145 132L146 133L145 132z"/>
</svg>

<svg xmlns="http://www.w3.org/2000/svg" width="200" height="200"><path d="M0 0v86h1C2.778 45.22 45.22 2.778 86 1L59 0H0z" fill="#010101"/><path d="M86 .428C71.786 2.465 58.11 7.345 46 15.054 34.785 22.194 25.349 31.108 17.721 42-31.526 112.325 28.291 211.851 114 199.572c14.214-2.037 27.889-6.917 40-14.626 11.216-7.14 20.651-16.054 28.279-26.946C231.52 87.685 171.696-11.849 86 .428z" fill="#d5d5d6"/><path d="M114 0v1c40.781 1.778 83.222 44.22 85 85h1V0h-86z" fill="#010101"/><path d="M188 52l1 1-1-1M50 62v1l34-1h65l-28-1H74l-24 1z" fill="#4dbebe"/><path d="M51 62v44c0 5.183-1.17 14.024 2.175 18.436 2.233 2.945 7.549 2.542 10.825 2.988 11.499 1.565 25.644.011 36-5.424L66.428 91 51 62z" fill="#06a5c8"/><path d="M52 62c7.128 19.09 15.958 35.857 32 49.076 4.364 3.597 10.295 9.012 16 10.17 6.304 1.28 14.361-5.616 19-9.145 15.825-12.038 27.325-30.254 30-50.101H52z" fill="#024971"/><path d="M148.333 65.667l.334.666-.334-.666M147 69l1 1-1-1m3 0v46h1c0-13.003 4.01-34.061-1-46m-3.667 3.667l.334.666-.334-.666z" fill="#4dbebe"/><path d="M149 74c-2.021 14.994-10.664 29.259-21.09 39.961-4.798 4.925-12.248 8.285-15.91 14.039 8.343 1.418 23.309 8.805 31.61 5.357 4.272-1.774 5.083-9.439 5.775-13.357 2.016-11.408 4.089-35.337-.385-46z" fill="#06a5c8"/><path d="M145 76l1 1-1-1m3.333.667l.334.666-.334-.666M144 78l1 1-1-1m3.333 2.667l.334.666-.334-.666M142 83l1 1-1-1m4.333.667l.334.666-.334-.666M141 85l1 1-1-1m4.333 1.667l.334.666-.334-.666M144 89l1 1-1-1m-6 1l1 1-1-1m5 1l1 1-1-1m-6 1l1 1-1-1m-1 1l1 1-1-1m6 0l1 1-1-1m-7 2l1 1-1-1m6 0l1 1-1-1m-7 1l1 1-1-1m6 1l1 1-1-1m-1 2l1 1-1-1m-1 1l1 1-1-1m-8 1l1 1-1-1m-1 1l1 1-1-1m8 0l1 1-1-1m-9 1l1 1-1-1m8 0l1 1-1-1m-9 1l1 1-1-1m-1 1l1 1-1-1m9 0l1 1-1-1m-10 1l1 1-1-1m9 0l1 1-1-1m-10 1l1 1-1-1m9 0l1 1-1-1m-10 1l1 1-1-1m-1 1l1 1-1-1z" fill="#4dbebe"/><path d="M119 111l1 1-1-1z" fill="#06a5c8"/><path d="M130 111l1 1-1-1m-12 1l1 1-1-1m11 0l1 1-1-1m-1 1l1 1-1-1z" fill="#4dbebe"/><path d="M0 114v86h86v-1c-32.049-1.397-62.428-27.474-76.191-55-4.792-9.584-5.544-20.503-9.809-30z" fill="#010101"/><path d="M115 114l1 1-1-1m12 0l1 1-1-1z" fill="#4dbebe"/><path d="M199 114c-1.778 40.781-44.219 83.222-85 85v1h86v-59l-1-27z" fill="#010101"/><path d="M114 115l1 1-1-1m12 0l1 1-1-1m-14 1l1 1-1-1m13 0l1 1-1-1m-1 1l1 1-1-1m-73 1v4h1l-1-4m58 0l1 1-1-1m-2 1l1 1-1-1m14 0l1 1-1-1m28 0v3h1l-1-3m-44 1l1 1-1-1m15 0l1 1-1-1m-17 1l1 1-1-1m16 0l1 1-1-1m-19.333 1.333l.666.334-.666-.334m-2 1l.666.334-.666-.334M116 123l1 1-1-1m-64 1l1 1-1-1m42.667.333l.666.334-.666-.334M115 124l1 1-1-1m33.333.667l.334.666-.334-.666m-57.666.666l.666.334-.666-.334M113 125l1 1-1-1m-59 1v1h3l-3-1m32.667.333l.666.334-.666-.334M59 127v1h6l-6-1m18 0v1h6l-6-1m-19 9c12.966 38.452 72.402 28.858 87-2-10.757-.849-23.646-7.022-34-6.309-5.4.372-10.814 4.511-16 6.104-11.447 3.516-25.225 5.008-37 2.205m89-8l1 1-1-1m-1 2l1 1-1-1m-1 2l1 1-1-1z" fill="#4dbebe"/></svg>
